X: 36351
T: Sean Maguire
R: reel
M: 4/4
K: Amajor
ce (3eee fe^de|aecA EAcA|Bf (3fff gf^ef|bfdB FBdB|
ce (3eee fe^de|aecA EAce|(3fgf (3efe (3ded (3cdc|(3BcB AG A4|
ac' (3c'c'c' ac'ea|ceAc EAce|fB (3BBB Bcde|fBbg agfe|
ac' (3c'c'c' ac'ea|ceAc EAce|(3fgf (3efe (3ded (3cdc|(3BcB AG A4|

